FINK
CUT[IST NICHT LANG DASS ES GEREGNET HAT]
REG[Europa, Mitteleuropa, Deutschland]
KEY[F0192  16  F 2/4]
MEL[-5_  1_2_3_4_  5_54#5_
    +1_  5_3_4_2_  3__0_
    -5_  1_2_3_4_  5_54#5_
    +1_  5_3_4_2_  1__0_ //] >>
FCT[Abschieds - Lied]
